eladmin-web/src/assets/icons/svg/dictionary.svg

<svg xmlns="http://www.w3.org/2000/svg" xmlns:xlink="http://www.w3.org/1999/xlink" width="200" height="200" class="icon" p-id="1497" t="1554868028575" version="1.1" viewBox="0 0 1024 1024"><defs><style type="text/css"/></defs><path fill="#bfbfbf" d="M558.409143 658.285714h-92.818286l-28.379428 62.427429a18.285714 18.285714 0 1 1-33.28-15.140572l91.428571-201.142857a18.285714 18.285714 0 0 1 33.28 0l91.428571 201.142857a18.285714 18.285714 0 1 1-33.28 15.140572L558.409143 658.285714z m-16.64-36.571428L512 556.178286 482.230857 621.714286h59.538286zM329.142857 128h475.428572a18.285714 18.285714 0 1 1 0 36.571429H329.142857a91.428571 91.428571 0 0 0 0 182.857142h475.428572a18.285714 18.285714 0 0 1 18.285714 18.285715v512a18.285714 18.285714 0 0 1-18.285714 18.285714H329.142857A128 128 0 0 1 201.142857 768V256A128 128 0 0 1 329.142857 128zM237.714286 345.6V768A91.428571 91.428571 0 0 0 329.142857 859.428571h457.142857v-475.428571H329.142857a127.634286 127.634286 0 0 1-91.428571-38.4zM329.142857 274.285714a18.285714 18.285714 0 0 1 0-36.571428h438.857143a18.285714 18.285714 0 1 1 0 36.571428H329.142857z" p-id="1498"/></svg>

<svg xmlns="http://www.w3.org/2000/svg" width="200" height="200" class="icon" viewBox="0 0 1024 1024"><defs><style/></defs><path d="M558.41 658.286h-92.82l-28.379 62.427a18.286 18.286 0 1 1-33.28-15.14L495.36 504.43a18.286 18.286 0 0 1 33.28 0l91.429 201.143a18.286 18.286 0 1 1-33.28 15.14l-28.38-62.427zm-16.64-36.572L512 556.178l-29.77 65.536h59.54zM329.142 128H804.57a18.286 18.286 0 1 1 0 36.571H329.143a91.429 91.429 0 0 0 0 182.858H804.57a18.286 18.286 0 0 1 18.286 18.285v512A18.286 18.286 0 0 1 804.571 896H329.143a128 128 0 0 1-128-128V256a128 128 0 0 1 128-128zm-91.429 217.6V768a91.429 91.429 0 0 0 91.429 91.429h457.143V384H329.143a127.634 127.634 0 0 1-91.429-38.4zm91.429-71.314a18.286 18.286 0 0 1 0-36.572H768a18.286 18.286 0 1 1 0 36.572H329.143z"/></svg>
